Qt/Resources/Icons/-X.svg

<svg width="64" height="64" xmlns="http://www.w3.org/2000/svg" data-name="Layer 1">

 <g>
  <title>Layer 1</title>
  <path id="svg_1" fill="#0000ff" d="m24.44,18.2l-9.31,-14l-9.32,14l5,0l0,21.26l8.73,0l0,-21.26l4.9,0z"/>
  <path id="svg_2" fill="#6f6f59" d="m19.49,40.58l-8.73,0a1.13,1.13 0 0 1 -1.13,-1.12l0,-20.13l-3.82,0a1.13,1.13 0 0 1 -0.94,-1.75l9.32,-14a1.14,1.14 0 0 1 0.94,-0.5l0,0a1.14,1.14 0 0 1 0.94,0.5l9.31,14.05a1.13,1.13 0 0 1 -0.94,1.75l-3.82,0l0,20.08a1.12,1.12 0 0 1 -1.13,1.12zm-7.61,-2.25l6.49,0l0,-20.13a1.13,1.13 0 0 1 1.12,-1.13l2.85,0l-7.21,-10.88l-7.22,10.88l2.85,0a1.13,1.13 0 0 1 1.12,1.13l0,20.13z"/>
  <path id="svg_3" fill="#00ff00" d="m45.7,58.79l14,-9.31l-14,-9.32l0,4.94l-21.26,0l0,8.74l21.26,0l0,4.95z"/>
  <path id="svg_4" fill="#6f6f59" d="m45.7,59.91a1.11,1.11 0 0 1 -1.13,-1.12l0,-3.79l-20.13,0a1.14,1.14 0 0 1 -1.13,-1.13l0,-8.77a1.13,1.13 0 0 1 1.13,-1.1l20.13,0l0,-3.84a1.12,1.12 0 0 1 1.75,-0.94l14,9.32a1.14,1.14 0 0 1 0.5,0.94a1.15,1.15 0 0 1 -0.5,0.94l-14,9.31a1.17,1.17 0 0 1 -0.62,0.18zm-20.13,-7.2l20.13,0a1.13,1.13 0 0 1 1.12,1.13l0,2.85l10.88,-7.21l-10.88,-7.22l0,2.84a1.12,1.12 0 0 1 -1.12,1.13l-20.13,0l0,6.48z"/>
  <rect id="svg_5" fill="#ff0000" height="18.46" width="18.46" y="39.46" x="5.81"/>
  <path id="svg_6" fill="#6f6f59" d="m24.27,59.05l-18.46,0a1.13,1.13 0 0 1 -1.13,-1.13l0,-18.46a1.12,1.12 0 0 1 1.13,-1.13l18.46,0a1.12,1.12 0 0 1 1.12,1.13l0,18.46a1.13,1.13 0 0 1 -1.12,1.13zm-17.34,-2.26l16.21,0l0,-16.21l-16.21,0l0,16.21z"/>
  <path id="svg_7" fill="#787878" d="m36,24.45l-7.52,0l0,-2.86l7.52,0l0,2.86z"/>
  <path id="svg_8" fill="#787878" d="m46.19,19l3.47,-6.55l4.34,0l-5.51,9.15l5.8,9.32l-4.48,0l-3.57,-6.66l-3.56,6.66l-4.33,0l5.65,-9.32l-5.48,-9.16l4.29,0l3.38,6.56z"/>
 </g>
</svg>

<svg id="Layer_1" data-name="Layer 1" xmlns="http://www.w3.org/2000/svg" viewBox="0 0 64 64"><path d="M24.44,18.2l-9.31-14L5.81,18.2h5V39.46h8.73V18.2Z" style="fill:#a7d28c"/><path d="M19.49,40.58H10.76a1.13,1.13,0,0,1-1.13-1.12V19.33H5.81a1.13,1.13,0,0,1-.94-1.75l9.32-14a1.14,1.14,0,0,1,.94-.5h0a1.14,1.14,0,0,1,.94.5l9.31,14.05a1.13,1.13,0,0,1-.94,1.75H20.62V39.46A1.12,1.12,0,0,1,19.49,40.58Zm-7.61-2.25h6.49V18.2a1.13,1.13,0,0,1,1.12-1.13h2.85L15.13,6.19,7.91,17.07h2.85a1.13,1.13,0,0,1,1.12,1.13Z" style="fill:#6f6f59"/><path d="M45.7,58.79l14-9.31-14-9.32V45.1H24.44v8.74H45.7Z" style="fill:#f3c017"/><path d="M45.7,59.91a1.11,1.11,0,0,1-1.13-1.12V55H24.44a1.14,1.14,0,0,1-1.13-1.13V45.1A1.13,1.13,0,0,1,24.44,44H44.57V40.16a1.12,1.12,0,0,1,1.75-.94l14,9.32a1.14,1.14,0,0,1,.5.94,1.15,1.15,0,0,1-.5.94l-14,9.31A1.17,1.17,0,0,1,45.7,59.91Zm-20.13-7.2H45.7a1.13,1.13,0,0,1,1.12,1.13v2.85L57.7,49.48,46.82,42.26V45.1a1.12,1.12,0,0,1-1.12,1.13H25.57Z" style="fill:#6f6f59"/><rect x="5.81" y="39.46" width="18.46" height="18.46" style="fill:#de4130"/><path d="M24.27,59.05H5.81a1.13,1.13,0,0,1-1.13-1.13V39.46a1.12,1.12,0,0,1,1.13-1.13H24.27a1.12,1.12,0,0,1,1.12,1.13V57.92A1.13,1.13,0,0,1,24.27,59.05ZM6.93,56.79H23.14V40.58H6.93Z" style="fill:#6f6f59"/><path d="M36,24.45H28.48V21.59H36Z" style="fill:#787878"/><path d="M46.19,19l3.47-6.55H54L48.49,21.6l5.8,9.32H49.81l-3.57-6.66-3.56,6.66H38.35L44,21.6l-5.48-9.16h4.29Z" style="fill:#787878"/></svg>
